X: 201
T: Mrs Lester. or the Brunswick.
C: by Weippert
%O: 1795
%R: waltz
Z: 2018 John Chambers <jc:trillian.mit.edu>
B: Wm. Campbell "10th Book of New and Favorite Country Dances, Strathspey Reels" 1795 p.20
F: https://archive.org/details/campbellstenthbo00camp
M: 3/8
L: 1/16
K: F
% - - - - - - - - - - - - - - - - - - - - - - - - -
% Voice 1 arranged for small-scale proofreading
V: 1 staves=2
F2 |\
A2A2B2 | c4(fd) | .c2.c2 (dB) | .A2.A2 FG | A2A2B2 | c4f2 | f2(gf)(ga) | f4 :|
|: !p!Tc2 |\
!f!{eg}.b2.b2 !p!Tc2 | !f!{f}.a2.a2 f2 | .e2(eg)(fa) | .g2.g2 !p!Tc2 | !f!{eg}b2b2 !p!c2 | !f!{f}a2a2 f2 | g2 ecde | f2f2 :|
|: AB |\
!pp!.c2(c2d2) | .c2.c2 (Ac) | .B2.B2 (GB) | (A2F2) FA | c2c2 d2 | c2c2f2 | .f.e.d.c.d.e | f4 H:|
% - - - - - - - - - - - - - - - - - - - - - - - - -
% Voice 1 preserves the original staff layout
V: 2 clef=bass middle=d
z2 |\
f6 | f6 | c2e2c2 | f2a2c'2 | f2a2c'2 | f2a2f2 | c6 | f2F2 :: z2 |
e2g2c'2 | f2"^cresc"a2c'2 | c2e2f2 | c'2c2z2 | z2e2e2 | z2"^cresc"f2a2 | B2G2c2 | f2F2 "Harp Solo":: z2 |
f2a2c'2 | f2a2c'2 | e2g2c'2 | f2a2c'2 | f2a2c'2 | f2a2f2 | c'4c2 | f2F2 H:|
% - - - - - - - - - - - - - - - - - - - - - - - - -
%%begintext align
%% The 1st Cu set to the 2d Lady & hands
%% 3 round the same with the Gent  lead
%% down the middle & up again Allemande
%% & swing corners.
%%endtext
% - - - - - - - - - - - - - - - - - - - - - - - - -

%%sep 1 1 500
%%sep 1 1 500

